src/images/flowfuse-logo-wordmark-white.svg

<svg fill="none" height="26" viewBox="0 0 146 26" width="146" xmlns="http://www.w3.org/2000/svg"><path fill-rule="evenodd" clip-rule="evenodd" d="M16.6016 9.90039C13.5 11.0996 10.6016 12.9004 7.30078 13.2002C5.49609 13.3506 3.64062 13.3311 1.8125 13.3115L0 13.2998V2C0 0.900391 0.898438 0 2 0H23.3984C24.5 0 25.3984 0.900391 25.3984 2V8.09961C22.3984 8 19.3984 8.7002 16.6016 9.90039ZM43.1992 3.59961H34.5977C34 3.59961 33.5 3.7998 33.1992 4.09961C32.8008 4.5 32.6992 4.89941 32.6992 5.5V20.1992C32.6992 20.7998 32.8984 21.1992 33.1992 21.5C33.5 21.7998 34 21.8994 34.6992 21.8994C35 21.8994 35.3984 21.8994 35.6992 21.7998C35.8633 21.7998 36 21.7695 36.1211 21.7422C36.2188 21.7197 36.3086 21.6992 36.3984 21.6992V14.5996H41.3008C41.5078 14.5996 41.6914 14.5723 41.8594 14.5029C42.0117 14.4404 42.1562 14.3428 42.3008 14.1992C42.3672 14.0986 42.4336 13.998 42.4922 13.8896C42.6094 13.6758 42.6992 13.4316 42.6992 13.0996C42.6992 12.7998 42.6992 12.5 42.5977 12.2998L42.3008 11.6992H36.5V6.59961H42.3984C42.8008 6.59961 43.0977 6.5 43.3984 6.19922C43.5977 5.89941 43.8008 5.5 43.8008 5C43.8008 4.69922 43.8008 4.39941 43.6992 4.19922C43.3984 3.89941 43.3008 3.7998 43.1992 3.59961ZM47.6016 3.59961C47.3008 3.59961 47 3.59961 46.6992 3.69922C46.3984 3.7998 46.1992 3.7998 46 3.7998V20.0996C46 20.6992 46.1992 21.0996 46.5 21.3994C46.8008 21.5996 47.3008 21.7998 48 21.7998C48.3984 21.7998 48.6992 21.7998 49 21.6992C49.0977 21.6992 49.1836 21.6885 49.2656 21.6709C49.3242 21.6582 49.3789 21.6406 49.4336 21.6211L49.5664 21.5635L49.6992 21.5V5.2998C49.6992 4.69922 49.5 4.2998 49.1992 4C49.0312 3.89844 48.8633 3.82031 48.6914 3.76074C48.3516 3.64355 47.9961 3.59961 47.6016 3.59961ZM59.9023 7.2998C61.3008 7.2998 62.6016 7.59961 63.7031 8.2002C64.8008 8.7998 65.7031 9.7002 66.1016 10.7002C66.3281 11.1143 66.5117 11.5566 66.6523 12.0273C66.7812 12.4521 66.8711 12.9004 66.9297 13.3711C66.9766 13.7646 67 14.1738 67 14.5996C67 16.0996 66.7031 17.3994 66.1016 18.5C65.5 19.5996 64.7031 20.5 63.6016 21.0996C62.6016 21.7002 61.3008 22 59.8008 22C58.4023 22 57.1016 21.7002 56 21.0996C54.9023 20.5 54.1016 19.7002 53.5 18.5996C52.9023 17.5 52.6016 16.2002 52.6016 14.7002C52.6016 13.2002 52.9023 11.8994 53.5 10.7998C54.2031 9.7002 55 8.7998 56.1016 8.2002C56.6016 7.92773 57.1406 7.71777 57.7109 7.56934C58.3984 7.38965 59.1367 7.2998 59.9023 7.2998ZM60 19.2002C61.1016 19.2002 62 18.7998 62.6016 18C63.2031 17.2002 63.5 16.0996 63.6016 14.5996C63.6016 13.0996 63.2031 12 62.6016 11.2002C62 10.3994 61.1016 10 60 10C58.9023 10 58 10.3994 57.4023 11.2002C56.7031 12.0996 56.4023 13.2002 56.4023 14.5996C56.4023 16.0996 56.8008 17.2002 57.4023 18C58 18.7998 58.9023 19.2002 60 19.2002ZM102.398 3.59961H93.7969C93.1992 3.59961 92.6992 3.7998 92.3984 4.09961C92 4.5 91.8984 4.89941 91.8984 5.5V20.1992L91.9102 20.4658L91.9414 20.6504C92.0156 21.0117 92.1797 21.2822 92.3984 21.5C92.5234 21.624 92.6836 21.7139 92.875 21.7764C93.1484 21.8652 93.4883 21.8994 93.8984 21.8994C94.1992 21.8994 94.5977 21.8994 94.8984 21.7998C95.1992 21.7998 95.3984 21.6992 95.5977 21.6992V14.5996H100.5C100.734 14.5996 100.934 14.5654 101.121 14.4746C101.25 14.4121 101.375 14.3223 101.5 14.1992L101.578 14.082L101.703 13.875C101.773 13.7412 101.832 13.5957 101.867 13.4238C101.887 13.3252 101.898 13.2178 101.898 13.0996C101.898 12.9238 101.898 12.748 101.879 12.5918C101.863 12.4824 101.84 12.3828 101.797 12.2998L101.5 11.6992H95.6992V6.59961H101.598C101.738 6.59961 101.867 6.58691 101.988 6.55762C102.117 6.52637 102.238 6.47559 102.355 6.39941C102.438 6.3457 102.516 6.2793 102.598 6.19922C102.797 5.89941 103 5.5 103 5V4.79395L102.984 4.51367C102.969 4.39453 102.941 4.28711 102.898 4.19922L102.719 4.01758L102.555 3.84082C102.488 3.7627 102.445 3.69141 102.398 3.59961ZM87.4023 7.5C87.9023 7.5 88.3008 7.59961 88.6016 7.7998C88.9023 8 89.1016 8.2998 89 8.90039C89 9.00781 88.9688 9.2002 88.9297 9.44824L88.8945 9.68164L88.8711 9.80176L88.8008 10.2002C88.6016 10.7998 88.5 11.5 88.3008 12.2998C88.1328 12.9814 87.9648 13.7363 87.793 14.5029L87.6992 14.9004C87.5898 15.3975 87.4492 15.8945 87.3125 16.375C87.1992 16.7637 87.0898 17.1416 87 17.5C86.6992 18.4004 86.5 19.0996 86.3008 19.7998C86.2227 19.9805 86.1602 20.1475 86.1055 20.3027L85.9688 20.7061C85.8789 20.9717 85.8008 21.1982 85.6992 21.4004C85.6875 21.4287 85.668 21.4551 85.6484 21.4795L85.582 21.541L85.5078 21.5898L85.4609 21.6162C85.3164 21.6885 85.125 21.7441 84.9023 21.7998C84.6016 21.9004 84.1992 22 83.6992 22C82.9727 22 82.4297 21.8896 82.0703 21.6699C81.9062 21.5693 81.7812 21.4463 81.6953 21.3008C81.6562 21.2383 81.625 21.1709 81.6016 21.0996C81.5117 20.8242 81.3984 20.5068 81.2734 20.1562L81.1602 19.8379C81.043 19.5127 80.9219 19.1641 80.8008 18.7998C80.5977 18.1973 80.3945 17.5488 80.1953 16.8555L79.9023 15.7998C79.6016 14.7002 79.3008 13.7002 79 12.5996C78.8008 13.7002 78.4023 14.7998 78.1016 15.9004C77.8008 17 77.4023 18 77.1016 19L76.3008 21.4004C76.1016 21.5996 75.8008 21.7002 75.5 21.7998C75.1992 21.9004 74.8008 21.9004 74.3008 21.9004C74.1406 21.9004 73.9805 21.9004 73.8203 21.8936L73.5938 21.8779C73.3438 21.8545 73.1094 21.8047 72.9023 21.7002C72.4023 21.5996 72.1992 21.2998 72 21C71.8008 20.5996 71.6016 20 71.4023 19.2998C71.25 18.7734 71.043 18.1904 70.8633 17.5078C70.8047 17.2832 70.75 17.0479 70.6992 16.7998C70.5 15.7998 70.1992 14.7998 70 13.7998L69.8906 13.416L69.7812 13.0146C69.6914 12.6562 69.6094 12.2979 69.5312 11.9395L69.4453 11.5322L69.3008 10.7998L69.1406 10.0254C69 9.33594 68.875 8.71387 68.8008 8.2002C69 8 69.1992 7.7998 69.6992 7.7002C69.8477 7.65039 70.0234 7.60059 70.2109 7.56348L70.5 7.51855L70.6523 7.50391L70.8008 7.5C71.3008 7.5 71.6992 7.7002 72 7.90039C72.0469 7.93066 72.0898 7.96582 72.1328 8.00586L72.2031 8.08203C72.2383 8.12402 72.2734 8.16992 72.3047 8.21973C72.4414 8.4375 72.5391 8.73047 72.6016 9.09961C72.6992 10.2002 72.9023 11.2998 73.1016 12.2998C73.1523 12.8867 73.2344 13.417 73.332 13.9053C73.4141 14.332 73.5078 14.7266 73.6016 15.0996C73.8008 15.9004 74 16.5996 74.1016 17.2002C74.1562 17.5479 74.2148 17.8623 74.2734 18.123C74.3164 18.3125 74.3594 18.4736 74.4023 18.5996H74.5C74.543 18.3906 74.6016 18.1465 74.6797 17.8584L74.7969 17.4482L75.1016 16.4004L75.3984 15.3906L75.6445 14.5303L75.8672 13.7881L76.1016 13L77.3008 9.09961C77.5 8.90039 77.8008 8.7998 78.1016 8.7002C78.2617 8.64648 78.4219 8.62109 78.5977 8.60938C78.75 8.59961 78.9141 8.59961 79.1016 8.59961C79.6016 8.59961 80.1016 8.59961 80.4023 8.7998C80.8008 9 81 9.2002 81.1016 9.59961C81.5 10.9004 81.8008 12.0996 82.1992 13.2998C82.5 14.5 82.8008 15.5996 83.1016 16.5C83.3008 17.5 83.5 18.2002 83.6016 18.5996H83.6992C84.1016 17 84.4023 15.2002 84.8008 13.4004C84.9883 12.5039 85.1523 11.6289 85.3086 10.7666L85.5625 9.30566L85.8008 7.90039C86.3008 7.59961 86.8008 7.5 87.4023 7.5ZM115.98 7.59668C115.75 7.52734 115.465 7.5 115.098 7.5C114.926 7.5 114.75 7.5 114.574 7.51953L114.41 7.54492C114.34 7.55859 114.27 7.57617 114.199 7.59961C113.898 7.7002 113.699 7.7002 113.5 7.7002V18.5C113.301 18.5996 112.898 18.7998 112.5 18.9004C112.098 19 111.5 19.0996 110.898 19.0996C110.684 19.0996 110.484 19.0908 110.297 19.0713C109.941 19.0342 109.625 18.9619 109.34 18.8467C109.07 18.7373 108.828 18.5908 108.598 18.4004C108.465 18.2686 108.348 18.123 108.246 17.9619C107.961 17.5107 107.801 16.9375 107.801 16.2002V9.2002C107.801 8.59961 107.598 8.09961 107.301 7.90039C107.191 7.82617 107.051 7.75195 106.887 7.6875L106.707 7.62695L106.539 7.58203C106.324 7.53125 106.078 7.5 105.801 7.5L105.383 7.50586C105.172 7.51465 104.984 7.53809 104.801 7.59961C104.625 7.6582 104.484 7.68262 104.379 7.69238L104.258 7.7002H104.199V16.2002C104.199 17.5 104.5 18.5996 105 19.5C105.5 20.2998 106.301 21 107.301 21.4004C107.559 21.5039 107.832 21.5938 108.113 21.6699C108.508 21.7773 108.926 21.8584 109.363 21.9131C109.824 21.9707 110.305 22 110.801 22C111.211 22 111.609 21.9863 111.996 21.958C112.637 21.9111 113.238 21.8252 113.801 21.7002C114.699 21.5 115.398 21.2002 115.898 20.9004L116.039 20.7949C116.371 20.5498 116.621 20.3643 116.801 20.0996C116.914 19.9297 116.961 19.7275 116.984 19.5107C117 19.3457 117 19.1729 117 19V9.2002C117 8.59961 116.801 8.09961 116.5 7.90039C116.355 7.75684 116.191 7.65918 115.98 7.59668ZM124.801 12.9004L126.301 13.2998C127.902 13.6006 129 14.2002 129.801 14.7998C130.5 15.5 130.902 16.5 130.902 17.6006C130.902 18.3867 130.746 19.0469 130.43 19.6162C130.184 20.0605 129.84 20.4492 129.402 20.7998C128.402 21.6006 126.902 22 125 22C123.402 22 122.102 21.7998 121.102 21.2998C120.102 20.7998 119.602 20.2002 119.602 19.4004C119.602 19.1006 119.602 18.7998 119.801 18.5C119.848 18.3662 119.91 18.252 119.996 18.1494C120.047 18.0879 120.105 18.0303 120.168 17.9746C120.238 17.915 120.316 17.8574 120.402 17.7998C120.902 18.2002 121.602 18.5 122.301 18.7998C123.102 19.1006 123.902 19.2002 124.801 19.2002C126.5 19.2002 127.301 18.6006 127.301 17.6006C127.301 17.1006 127.203 16.7998 126.902 16.5C126.602 16.2002 126.102 16 125.5 15.9004L123.801 15.5C122.402 15.2002 121.402 14.7002 120.703 14C120 13.4004 119.703 12.5 119.703 11.4004C119.703 10.2002 120.203 9.2002 121.203 8.40039C122.203 7.60059 123.602 7.2002 125.402 7.2002C126.301 7.2002 127.203 7.2998 127.902 7.5L128.16 7.5791L128.391 7.66113C128.547 7.7207 128.699 7.78418 128.84 7.85059C129.137 7.99121 129.395 8.14551 129.602 8.2998C130 8.60059 130.203 9 130.203 9.5C130.203 9.90039 130.102 10.1006 130 10.4004C129.902 10.6006 129.703 10.7998 129.5 11C129.309 10.8701 129.113 10.7822 128.891 10.6816C128.77 10.6279 128.641 10.5703 128.5 10.5C128.102 10.2998 127.602 10.2002 127.102 10.1006C126.602 10 126.102 9.90039 125.602 9.90039C124.902 9.90039 124.203 10.1006 123.801 10.2998C123.301 10.6006 123.102 10.9004 123.102 11.4004C123.102 11.6533 123.141 11.8662 123.246 12.0391C123.309 12.1396 123.391 12.2266 123.5 12.2998C123.801 12.6006 124.203 12.7998 124.801 12.9004ZM145.203 10.2998C144.703 9.39941 143.902 8.7002 142.902 8.09961C142.309 7.80273 141.68 7.57715 140.992 7.44238C140.852 7.41406 140.707 7.38965 140.559 7.36914C140.219 7.32324 139.867 7.2998 139.5 7.2998C138.602 7.2998 137.703 7.5 136.801 7.7998C136.453 7.93066 136.105 8.09961 135.773 8.29785C135.344 8.55469 134.941 8.86133 134.602 9.2002C134 9.7998 133.5 10.5996 133.102 11.5C132.703 12.3994 132.602 13.5 132.602 14.5996C132.602 15.5771 132.715 16.4795 132.961 17.2852C133.016 17.4648 133.078 17.6396 133.145 17.8105L133.293 18.1436C133.387 18.3369 133.488 18.5225 133.602 18.7002C133.848 19.1504 134.16 19.5674 134.52 19.9375C135.039 20.4707 135.652 20.9053 136.301 21.2002C136.594 21.3457 136.891 21.4678 137.195 21.5693L137.473 21.6553C137.695 21.7197 137.922 21.7734 138.152 21.8184C138.438 21.873 138.727 21.9141 139.023 21.9434C139.434 21.9824 139.859 22 140.301 22C141.301 22 142.102 21.8994 142.902 21.7002C143.25 21.6133 143.559 21.5078 143.828 21.3916C144.184 21.2393 144.477 21.0693 144.703 20.8994C145.203 20.5 145.402 20.0996 145.402 19.5996C145.402 19.4766 145.383 19.3535 145.355 19.2305C145.32 19.0537 145.262 18.877 145.203 18.7002C145 18.3994 144.801 18.2002 144.602 18.0996C144.477 18.1934 144.332 18.2871 144.172 18.3779C143.949 18.5029 143.695 18.623 143.418 18.7285L143.18 18.8135L142.902 18.8994C142.203 19.0996 141.402 19.2998 140.602 19.2998C139.402 19.2998 138.301 19 137.5 18.3994C136.902 17.8994 136.402 17.2002 136.203 16.2998L144.402 15.0996C144.711 15.0381 144.98 14.9766 145.211 14.8682C145.293 14.8291 145.371 14.7842 145.445 14.7305C145.5 14.6914 145.551 14.6484 145.602 14.5996C145.766 14.4355 145.871 14.2422 145.93 14.0186C145.98 13.833 146 13.627 146 13.3994C146 12.2002 145.703 11.2002 145.203 10.2998ZM136 13.7998C136.043 13.2891 136.121 12.832 136.246 12.4219C136.41 11.8701 136.656 11.4023 137 11C137.703 10.2998 138.5 9.89941 139.5 9.89941C140.5 9.89941 141.203 10.2002 141.801 10.7002C142.301 11.2998 142.602 11.8994 142.703 12.7002L136 13.7998ZM25.3984 18.5996C24.1992 18.5996 23 18.5 21.8008 18.2998C19.1016 17.7002 16.6016 16.4004 14 15.2998L14.8203 14.9434L15.8281 14.4941C18.5586 13.2676 21.3789 12 24.3984 12H25.3984V18.5996ZM4.44922 17.3115C3.86719 17.2998 3.28125 17.2998 2.69922 17.2998H0V23.3994C0 24.5 0.898438 25.3994 2 25.3994H23.5C24.6016 25.3994 25.5 24.5 25.5 23.3994V22.5996C22.8984 22.5996 20.1992 22.2998 17.8008 21.2998C13.8984 20 10.3984 17.5 6.30078 17.3994C5.68359 17.3486 5.06641 17.3232 4.44922 17.3115Z" fill="white"/></svg>

<svg fill="none" height="26" width="146" xmlns="http://www.w3.org/2000/svg"><path fill-rule="evenodd" clip-rule="evenodd" d="M16.602 9.9c-3.102 1.2-6 3-9.301 3.3-1.805.15-3.66.131-5.489.112L0 13.3V2C0 .9.898 0 2 0h21.398c1.102 0 2 .9 2 2v6.1c-3-.1-6 .6-8.796 1.8zm26.597-6.3h-8.601c-.598 0-1.098.2-1.399.5-.398.4-.5.8-.5 1.4v14.7c0 .6.2 1 .5 1.3.301.3.801.4 1.5.4.301 0 .7 0 1-.1.164 0 .301-.03.422-.058.098-.022.188-.043.277-.043v-7.1h4.903c.207 0 .39-.027.558-.096.153-.063.297-.16.442-.304.066-.1.133-.201.191-.31.117-.213.207-.457.207-.79 0-.3 0-.599-.101-.8l-.297-.6H36.5V6.6h5.898c.403 0 .7-.099 1-.4.2-.3.403-.699.403-1.199 0-.3 0-.6-.102-.8-.3-.3-.398-.4-.5-.6zm4.403 0c-.301 0-.602 0-.903.1-.3.1-.5.1-.699.1v16.3c0 .6.2 1 .5 1.3.3.2.8.4 1.5.4.398 0 .7 0 1-.1a1.243 1.243 0 0 0 .434-.079l.132-.057.133-.064V5.3c0-.6-.199-1-.5-1.3a2.656 2.656 0 0 0-.508-.24 3.285 3.285 0 0 0-1.09-.16zm12.3 3.7c1.399 0 2.7.3 3.801.9 1.098.6 2 1.5 2.399 2.5.226.414.41.857.55 1.327.13.425.22.873.278 1.344.047.394.07.803.07 1.229 0 1.5-.297 2.8-.898 3.9-.602 1.1-1.399 2-2.5 2.6-1 .6-2.301.9-3.801.9-1.399 0-2.7-.3-3.801-.9a6.042 6.042 0 0 1-2.5-2.5c-.598-1.1-.898-2.4-.898-3.9s.3-2.8.898-3.9c.703-1.1 1.5-2 2.602-2.6a7.082 7.082 0 0 1 1.609-.63 8.681 8.681 0 0 1 2.191-.27zM60 19.2c1.102 0 2-.4 2.602-1.2.601-.8.898-1.9 1-3.4 0-1.5-.399-2.6-1-3.4C62 10.4 61.102 10 60 10c-1.098 0-2 .4-2.598 1.2-.699.9-1 2-1 3.4 0 1.5.399 2.6 1 3.4.598.8 1.5 1.2 2.598 1.2zm42.398-15.6h-8.601c-.598 0-1.098.2-1.399.5-.398.4-.5.8-.5 1.4v14.7l.012.266.031.184c.075.362.239.632.457.85.125.124.286.214.477.276.273.09.613.123 1.023.123.301 0 .7 0 1-.1.301 0 .5-.1.7-.1v-7.1h4.902c.234 0 .434-.034.621-.124a1.43 1.43 0 0 0 .379-.276l.078-.117.125-.207c.07-.134.129-.28.164-.451.02-.099.031-.206.031-.324 0-.176 0-.352-.019-.508a.93.93 0 0 0-.082-.292l-.297-.6h-5.8V6.6h5.898c.14 0 .269-.013.39-.042.129-.032.25-.082.367-.159.083-.053.161-.12.243-.2.199-.3.402-.699.402-1.199v-.206l-.016-.28a1.009 1.009 0 0 0-.086-.315l-.179-.181-.164-.177a1.144 1.144 0 0 1-.157-.241zM87.402 7.5c.5 0 .899.1 1.2.3.3.2.5.5.398 1.1 0 .108-.031.3-.07.548l-.036.234-.023.12-.07.398c-.2.6-.301 1.3-.5 2.1-.168.681-.336 1.436-.508 2.203l-.094.397c-.11.498-.25.995-.386 1.475-.114.389-.223.767-.313 1.125-.3.9-.5 1.6-.7 2.3-.077.18-.14.348-.194.503l-.137.403c-.09.266-.168.492-.27.694a.338.338 0 0 1-.05.08l-.067.061-.074.049-.047.026a2.853 2.853 0 0 1-.559.184c-.3.1-.703.2-1.203.2-.726 0-1.27-.11-1.629-.33a1.078 1.078 0 0 1-.468-.57c-.09-.276-.204-.593-.329-.944l-.113-.318a44.146 44.146 0 0 1-.36-1.038 44.955 44.955 0 0 1-.605-1.945l-.293-1.055c-.3-1.1-.601-2.1-.902-3.2-.2 1.1-.598 2.2-.898 3.3-.301 1.1-.7 2.1-1 3.1l-.801 2.4c-.2.2-.5.3-.801.4-.3.1-.7.1-1.2.1-.16 0-.32 0-.48-.006l-.226-.016a1.92 1.92 0 0 1-.692-.178c-.5-.1-.703-.4-.902-.7-.2-.4-.398-1-.598-1.7-.152-.527-.359-1.11-.539-1.792a13.64 13.64 0 0 1-.164-.708c-.199-1-.5-2-.699-3l-.11-.384-.109-.401c-.09-.359-.172-.717-.25-1.075l-.086-.408-.144-.732-.16-.775A34.52 34.52 0 0 1 68.8 8.2c.199-.2.398-.4.898-.5.149-.05.324-.1.512-.137l.289-.044.152-.015.149-.004c.5 0 .898.2 1.199.4.047.03.09.066.133.106l.07.076c.035.042.07.088.102.138.136.217.234.51.297.88.097 1.1.3 2.2.5 3.2.05.587.132 1.117.23 1.605.082.427.176.822.27 1.195.199.8.398 1.5.5 2.1.054.348.113.662.171.923.043.19.086.35.13.477h.097c.043-.21.102-.454.18-.742l.117-.41.305-1.048.296-1.01.246-.86.223-.742.235-.788L77.3 9.1c.199-.2.5-.3.8-.4.16-.054.32-.079.497-.09.152-.01.316-.01.504-.01.5 0 1 0 1.3.2.399.2.598.4.7.8.398 1.3.699 2.5 1.097 3.7.301 1.2.602 2.3.903 3.2.199 1 .398 1.7.5 2.1h.097c.403-1.6.703-3.4 1.102-5.2.187-.896.351-1.771.508-2.633l.254-1.461L85.8 7.9c.5-.3 1-.4 1.601-.4zm28.578.097c-.23-.07-.515-.097-.882-.097-.172 0-.348 0-.524.02l-.164.025c-.07.014-.14.031-.211.055-.301.1-.5.1-.699.1v10.8c-.199.1-.602.3-1 .4-.402.1-1 .2-1.602.2-.214 0-.414-.01-.601-.029a3.503 3.503 0 0 1-.957-.224 2.793 2.793 0 0 1-.742-.447 2.487 2.487 0 0 1-.352-.438c-.285-.451-.445-1.024-.445-1.762v-7c0-.6-.203-1.1-.5-1.3a2.16 2.16 0 0 0-.414-.213l-.18-.06-.168-.045a3.207 3.207 0 0 0-.738-.082l-.418.006a2.06 2.06 0 0 0-.582.094 1.887 1.887 0 0 1-.422.092l-.121.008h-.059v8.5c0 1.3.301 2.4.801 3.3.5.8 1.301 1.5 2.301 1.9.258.104.531.194.812.27.395.107.813.188 1.25.243.461.058.942.087 1.438.087.41 0 .808-.014 1.195-.042a12.551 12.551 0 0 0 1.805-.258c.898-.2 1.597-.5 2.097-.8l.141-.105c.332-.245.582-.43.762-.695.113-.17.16-.373.183-.59.016-.164.016-.337.016-.51V9.2c0-.6-.199-1.1-.5-1.3a1.19 1.19 0 0 0-.52-.303zm8.821 5.303l1.5.4c1.601.3 2.699.9 3.5 1.5.699.7 1.101 1.7 1.101 2.8 0 .787-.156 1.447-.472 2.016-.246.445-.59.833-1.028 1.184-1 .8-2.5 1.2-4.402 1.2-1.598 0-2.898-.2-3.898-.7-1-.5-1.5-1.1-1.5-1.9 0-.3 0-.6.199-.9.047-.134.109-.248.195-.35a1.59 1.59 0 0 1 .172-.175c.07-.06.148-.118.234-.175.5.4 1.2.7 1.899 1 .801.3 1.601.4 2.5.4 1.699 0 2.5-.6 2.5-1.6 0-.5-.098-.8-.399-1.1-.3-.3-.8-.5-1.402-.6l-1.699-.4c-1.399-.3-2.399-.8-3.098-1.5-.703-.6-1-1.5-1-2.6 0-1.2.5-2.2 1.5-3 1-.8 2.399-1.2 4.199-1.2.899 0 1.801.1 2.5.3l.258.08.231.081c.156.06.308.123.449.19.297.14.555.295.762.449.398.3.601.7.601 1.2 0 .4-.101.6-.203.9-.098.2-.297.4-.5.6-.191-.13-.387-.218-.609-.318a9.327 9.327 0 0 1-.391-.182c-.398-.2-.898-.3-1.398-.4-.5-.1-1-.2-1.5-.2-.7 0-1.399.2-1.801.4-.5.3-.699.6-.699 1.1 0 .253.039.466.144.64.063.1.145.187.254.26.301.3.703.5 1.301.6zm20.402-2.6c-.5-.9-1.301-1.6-2.301-2.2a7.417 7.417 0 0 0-2.343-.73 7.9 7.9 0 0 0-1.059-.07c-.898 0-1.797.2-2.699.5-.348.13-.696.3-1.028.498a6.097 6.097 0 0 0-1.171.902c-.602.6-1.102 1.4-1.5 2.3-.399.9-.5 2-.5 3.1 0 .977.113 1.88.359 2.685.055.18.117.355.184.526l.148.333c.094.193.195.379.309.556a5.943 5.943 0 0 0 2.699 2.5c.293.146.59.268.894.37l.278.085c.222.065.449.118.679.163.286.055.575.096.871.125.411.04.836.057 1.278.057 1 0 1.801-.1 2.601-.3.348-.087.657-.192.926-.308.356-.153.649-.323.875-.493.5-.399.699-.8.699-1.3 0-.122-.019-.245-.047-.369a4.4 4.4 0 0 0-.152-.53c-.203-.3-.402-.5-.601-.6-.125.093-.27.187-.43.278a5.698 5.698 0 0 1-.754.35l-.238.085-.278.086c-.699.2-1.5.4-2.3.4-1.2 0-2.301-.299-3.102-.9a3.79 3.79 0 0 1-1.297-2.1l8.199-1.2c.309-.06.578-.122.809-.23a1.48 1.48 0 0 0 .391-.27c.164-.164.269-.357.328-.58.05-.186.07-.392.07-.62 0-1.199-.297-2.199-.797-3.1zM136 13.8c.043-.51.121-.968.246-1.378A3.81 3.81 0 0 1 137 11c.703-.7 1.5-1.1 2.5-1.1s1.703.3 2.301.8c.5.6.801 1.2.902 2L136 13.8zM25.398 18.6c-1.199 0-2.398-.1-3.597-.3-2.7-.6-5.2-1.9-7.801-3l.82-.357 1.008-.449c2.73-1.226 5.55-2.494 8.57-2.494h1v6.6zM4.45 17.31C3.867 17.3 3.281 17.3 2.7 17.3H0v6.1c0 1.1.898 2 2 2h21.5c1.102 0 2-.9 2-2v-.8c-2.602 0-5.3-.3-7.7-1.3-3.902-1.3-7.402-3.8-11.5-3.9a29.333 29.333 0 0 0-1.85-.088z" fill="#fff"/></svg>
